X:1
T:6 Songs, Op.7
T:Die Trauernde
T:5. Die Trauernde
T:Johannes Brahms
T:Volkslied
T:6 Songs, Op.7
T:Creative Commons copyright waiver (CC0 1.0 Universal) 
C:Johannes Brahms
Z:Volkslied
Z:Creative Commons copyright waiver (CC0 1.0 Universal)
Z:
%%score ( 1 2 ) { 3 | 4 }
L:1/8
Q:1/4=68
M:3/4
K:C
V:1 treble nm="Singstimme\nVoice"
V:2 treble 
V:3 treble nm="Pianoforte"
V:4 bass 
V:1
"^Langsam"!p! A2 |:"^espressivo" c4 B B | A A E2 z2 | F F G G A A | E4 z2 | c4 B B | A A E2 z2 | %7
w: Mei|Mue * *|mag mi net,|und kei Schatz * han i|net,|ei war- um,|sterb i net,|
w: |Ge- stern isch|Kirch- weih g'wä,|mi * hot mer g'wis net|g'seh,|denn mir ischs|gar so weh,|
 F2 G2 A2 | E6 | z6 :|!p!"^sostenuto"!<(! c4 (.d!<)! .d) |!f! (.e!>(! .e) ^c4!>)! | %12
w: was tu i|do?||Lasst die drei|Ro- se stehn,|
w: i tanz ja|net.||||
!p!!<(! =c4 (.d!<)! .d) |!f! (.e!>(! .e) ^c4!>)! |!p! =c4 B B | A A E2 z2 |"^dim." F2 G2 A2 | E6 | %18
w: die an dem|Kreuz- le blün:|hent ihr das|Mäd- le kennt,|die drun- ter|liegt?|
w: ||||||
 z6 |] %19
w: |
w: |
V:2
 x2 |: x4 B2 | x6 | F2 G2 x2 | x6 | x6 | x6 | x6 | x6 | x6 :| x6 | x6 | x6 | x6 | x6 | x6 | x6 | %17
w: |ter||||||||||||||||
 x6 | x6 |] %19
w: ||
V:3
 z2 |: ([Ac]4 [GB]2 | [FA]2 E4) | ([DF]2 [C-G]2 [CA]2) | (([CE]2 [B,E]4)) | ([Ac]4 [GB]2 | %6
 [FA]2 E4) | ([DF]2 [CG]2 [B,A]2) | ([B,E-]2 [CE]4) | ([E-^GBe-]2 [EAce]4) :| %10
"^sostenuto" [Ac]4 [Ad]2 | [^ce]2 c4 | [A=c]4 [Ad]2 | [^ce]2 c4 | ([EA=c]4 [DGB]2 | [CFA]2 [CE]4) | %16
 ([DF]2 [CG]2 [B,A]2) | ([B,E-]2 [CE]4) | ([E-^GBe-]2 [EAce]4) |] %19
V:4
 z2 |:!p! ([A,E]4 [B,D]2 | [F,C]2 [A,C]4) | ([D,A,]2 [E,G,]2 F,2) | ([E,-A,]2 [E,^G,]4) | %5
 ([A,E]4 [B,D]2 | [F,C-]2 [C,G,C]4) | ([D,A,]2 [E,G,]2 F,2) |!>(! ([E,-^G,]2 [E,A,]4)!>)! | %9
!pp! ([E,,E,-]2 [A,,E,]4) :|!p!!<(! [A,E]4 [A,F]2!<)! |!f!!>(! ([A,-^CA-]2 [A,EA]4)!>)! | %12
!p!!<(! [A,E]4 [A,F]2!<)! |!f!!>(! ([A,-^CA-]2 [A,EA]4)!>)! |[K:bass]!p! (A,2 A,,2 B,,2 | %15
 [F,,C,-]2 [C,,G,,C,]4) |"^dim." ([D,,A,,]2 [E,,G,,]2 F,,2) |!>(! (([E,,^G,,]2!>)! [E,,A,,]4)) | %18
!pp! E,,2- [A,,,E,,A,,]4 |] %19

